X: 43618
T: Yvonne Casey's
R: reel
M: 4/4
K: Dmajor
|:dA (3AAA defa|afef d3 f|eB (3BBB efgb|bagb afef|
dA (3AAA defa|afef d3 d|efge fage|1 fage d2fe:|2 fage d2 (3fga||
|:d'z ag fd (3ddd|Adfa d'f'e'd'|e'z ba ge (3eee|Begb e'd'c'e'|
d'z ag fd (3ddd|Adfa d'afd|efge fage|1 fage d2 (3fga:|2 fage d2fe||

